Papirus/22x22/panel/anatine-indicator.svg

<?xml version="1.0" encoding="UTF-8" standalone="no"?>
<svg xmlns:dc="http://purl.org/dc/elements/1.1/" xmlns:cc="http://creativecommons.org/ns#" xmlns:rdf="http://www.w3.org/1999/02/22-rdf-syntax-ns#" xmlns:svg="http://www.w3.org/2000/svg" xmlns="http://www.w3.org/2000/svg" version="1.0" width="22" height="22" id="svg2817">
    <metadata id="metadata57">
        <rdf:RDF>
            <cc:Work rdf:about="">
                <dc:format>
                    image/svg+xml
                </dc:format>
                <dc:type rdf:resource="http://purl.org/dc/dcmitype/StillImage"/>
                <dc:title/>
            </cc:Work>
        </rdf:RDF>
    </metadata>
    <path id="path4566" d="M 9.5294081,18.992642 C 7.7720621,18.808997 6.547972,18.29597 5.6434634,17.364006 5.2780575,16.98751 5.0297888,16.641221 4.8234614,16.220254 4.3868307,15.329405 4.2499585,14.327024 4.4637168,13.585739 4.6762809,12.848601 5.1597388,12.035862 5.8402584,11.271638 6.2181543,10.84726 6.40935,10.57196 6.5841855,10.225886 6.7950474,9.808505 6.8177321,9.529094 6.8000036,9.141619 6.7827975,8.765853 6.7037674,8.603772 6.5016706,8.432697 6.3101655,8.270587 6.2312256,8.181339 5.6385615,8.210149 5.0600911,8.238269 4.7764,8.202377 4.5000966,8.066125 4.2857705,7.960435 4.2098213,7.841041 4.2760603,7.713938 4.6205749,7.439558 4.7414253,7.13962 5.1200026,6.9999972 4.565951,6.5178172 4.0188744,6.0133712 4.000002,5.2930352 c 0.038919,-0.385829 0.3887327,-0.293038 0.3887327,-0.293038 0.5485355,0.113377 1.1154714,0.227402 1.6320654,0.245215 0.14856,-0.02056 0.3051787,-0.06098 0.3480445,-0.08983 0.042868,-0.02885 0.1596908,-0.199806 0.2596117,-0.379916 0.389427,-0.701956 0.8018179,-1.155151 1.2637902,-1.388824 0.5323437,-0.26927 1.2855497,-0.413308 2.0004556,-0.382555 0.8595029,0.03697 1.5894949,0.340221 2.1856409,0.907947 0.409793,0.390253 0.68098,0.487836 1.07075,0.385291 0.274182,-0.07214 0.280366,-0.07178 0.280366,0.01598 0,0.115324 -0.09019,0.26476 -0.228626,0.378812 l -0.127529,0.105063 0.128562,0.0779 c 0.177166,0.107348 0.156182,0.19368 -0.0546,0.224643 -0.175564,0.02579 -0.307151,0.08521 -0.307151,0.138694 0,0.01889 0.0252,0.182532 0.056,0.363663 0.07557,0.44438 0.04865,1.30543 -0.0541,1.7303688 -0.159317,0.658933 -0.400314,1.122875 -0.812122,1.563383 -0.320133,0.297301 -1.225579,0.90676 -1.309897,0.961311 0.03962,0 0.386305,-0.02077 0.618387,2.24e-4 0.84948,0.07683 1.441055,0.222927 2.294098,0.628569 0.805702,0.383127 1.148134,0.424443 1.594063,0.192332 0.284542,-0.148106 0.691866,-0.464105 0.996248,-0.882698 0.260407,-0.358119 0.415335,-0.509855 0.657207,-0.509855 0.236887,0 0.407059,0.159314 0.586355,0.438573 0.253909,0.395469 0.392414,0.677888 0.490952,1.366763 0.07041,0.492291 0.05064,1.647905 -0.03662,2.138676 -0.521449,2.933185 -2.356002,4.907991 -5.156729,5.550971 -0.755885,0.173534 -1.060428,0.204727 -2.107882,0.215899 -0.543407,0.0058 -1.0504143,0.004 -1.1266818,-0.0039 z" style="opacity:1000002;fill:#ffffff;fill-opacity:1"/>
</svg>

<?xml version="1.0" encoding="UTF-8" standalone="no"?>
<svg id="svg2817" xmlns:rdf="http://www.w3.org/1999/02/22-rdf-syntax-ns#" xmlns="http://www.w3.org/2000/svg" height="22" width="22" version="1.0" xmlns:cc="http://creativecommons.org/ns#" xmlns:dc="http://purl.org/dc/elements/1.1/">
 <metadata id="metadata57">
  <rdf:RDF>
   <cc:Work rdf:about="">
    <dc:format>image/svg+xml</dc:format>
    <dc:type rdf:resource="http://purl.org/dc/dcmitype/StillImage"/>
    <dc:title/>
   </cc:Work>
  </rdf:RDF>
 </metadata>
 <path id="path4566" opacity="1e6" d="m9.5294 18.993c-1.7573-0.184-2.9814-0.697-3.8859-1.629-0.3654-0.376-0.6137-0.723-0.82-1.144-0.4367-0.891-0.5735-1.893-0.3598-2.634 0.2126-0.737 0.696-1.55 1.3766-2.314 0.3779-0.425 0.5691-0.7 0.7439-1.046 0.2108-0.4175 0.2335-0.6969 0.2158-1.0844-0.0172-0.3757-0.0962-0.5378-0.2983-0.7089-0.1915-0.1621-0.2705-0.2514-0.8631-0.2226-0.5785 0.0282-0.8622-0.0077-1.1385-0.144-0.2143-0.1057-0.2903-0.2251-0.224-0.3522 0.3445-0.2743 0.4653-0.5743 0.8439-0.7139-0.554-0.4822-1.1011-0.9866-1.12-1.707 0.038919-0.38583 0.38873-0.29304 0.38873-0.29304 0.54854 0.11338 1.1155 0.2274 1.6321 0.24522 0.14856-0.02056 0.30518-0.06098 0.34804-0.08983 0.042868-0.02885 0.15969-0.19981 0.25961-0.37992 0.38943-0.70196 0.80182-1.1552 1.2638-1.3888 0.53234-0.26927 1.2855-0.41331 2.0005-0.38256 0.8595 0.03697 1.5895 0.34022 2.1856 0.90795 0.40979 0.39025 0.68098 0.48784 1.0708 0.38529 0.27418-0.07214 0.28037-0.07178 0.28037 0.01598 0 0.11532-0.09019 0.26476-0.22863 0.37881l-0.12753 0.10506 0.12856 0.0779c0.17717 0.10735 0.15618 0.19368-0.0546 0.22464-0.17556 0.02579-0.30715 0.08521-0.30715 0.13869 0 0.01889 0.0252 0.18253 0.056 0.36366 0.07557 0.44438 0.04865 1.3054-0.0541 1.7304-0.15932 0.65893-0.40031 1.1229-0.81212 1.5634-0.32013 0.2973-1.2256 0.90676-1.3099 0.96131 0.03962 0 0.3863-0.02077 0.61839 0.000224 0.84948 0.07683 1.4411 0.22293 2.2941 0.62857 0.8057 0.38313 1.1481 0.42444 1.5941 0.19233 0.28454-0.14811 0.69187-0.4641 0.99625-0.8827 0.26041-0.35812 0.41534-0.50986 0.65721-0.50986 0.23689 0 0.40706 0.15931 0.58636 0.43857 0.25391 0.39547 0.39241 0.67789 0.49095 1.3668 0.07041 0.49229 0.05064 1.6479-0.03662 2.1387-0.52145 2.9332-2.356 4.908-5.1567 5.551-0.75588 0.17353-1.0604 0.20473-2.1079 0.2159-0.54341 0.0058-1.0504 0.004-1.1267-0.0039z" fill="#fff"/>
</svg>
